X: 2
T: Tongadale, aka The Frozen Haddock
R: reel
C:\251Taigh na Teud/Farquhar MacDonald
M: 4/4
L: 1/8
K: Amin
|:AB | "Am"cBcB AEAB | cBcB "F"AFAc | "G"BGDG EDEG | DEGA "Em"BG G/G/G |
"Am"cBcB AEAB | cBcB "F"AFAc | "G"BGDG [1EDDd | "G7"dBcB "A"A2:|2"Em"EDEG|EDCB, A,2 |]
|:A,B, | "Am"CA,EA, FA,EA, | GA,EA, "F"FEDC | "G"B,G,DG, EG,DG, | FG,EG, "Em"DCA,B, |
"Am"CA,EA, FA,EA, | GA,EA, "F"FEDC | "G"B,G,DG, EDCB, | "Am"CA,A,G, A,2 :| 